X:594
M:C|
L:1/8
K:C
e/f/|gcac gcac|g<ce<c d2 de/f/|gcac gcec|BGAB ~c2c:|
~c2 GE cGEc|GcEc d2de|cedf egfa|ecdB c2c||

